FINK
CUT[MARIANDEL IST SO SCHOEN]
REG[Europa, Mitteleuropa, Deutschland]
KEY[F1122  08  C 2/4]
MEL[-5  -5-5-6-7  1_0
    -5  -5-6-71  1#_2
    2  21#23  432
    1  -7-5-6-7  1_0
    1  1-7-6-5  -4#-5-6
    -4#  -5-6-71  1#_2
    2  1-7-6-5  -4#-5-6
    -4#  -5-7-62  -5_0
    -5  -5-5-6-7  1_0
    -5  -5-6-71  1#_2
    2  21#23  432
    1  -7-5-6-7  1_0
    5  5-7-7-7  1_0
    5  5-7-7-7  1_0 //] >>
FCT[Liebes - Lied]
